Adwaita++-Dark/actions/22/insert-endnote.svg

<svg height="22" viewBox="0 0 22 22" width="22" xmlns="http://www.w3.org/2000/svg">
  <path d="m3 1c-1.108 0-2 .892-2 2v10c0 1.108.892 2 2 2h7c1.108 0 2-.892 2-2v-10c0-1.108-.892-2-2-2zm10 7v2h2v-2zm-9 3h5v2h-5zm9 0v4h2v-4z" fill="#e6ddff" transform="translate(3 3)"/>
</svg>

<svg xmlns="http://www.w3.org/2000/svg" width="22" height="22" viewBox="0 0 22 22">
 <defs>
  <style id="current-color-scheme" type="text/css">
   .ColorScheme-Text { color:#E6DDFF; } .ColorScheme-Highlight { color:#4285f4; }
  </style>
 </defs>
 <path style="fill:currentColor" class="ColorScheme-Text" d="M 3 1 C 1.892 1 1 1.892 1 3 L 1 13 C 1 14.108 1.892 15 3 15 L 10 15 C 11.108 15 12 14.108 12 13 L 12 3 C 12 1.892 11.108 1 10 1 L 3 1 z M 13 8 L 13 10 L 15 10 L 15 8 L 13 8 z M 4 11 L 9 11 L 9 13 L 4 13 L 4 11 z M 13 11 L 13 15 L 15 15 L 15 11 L 13 11 z" transform="translate(3 3)"/>
</svg>
